packages/katcn/src/icons/svg/rewind-solid.svg

<svg width="24" height="25" viewBox="0 0 24 25" fill="none" xmlns="http://www.w3.org/2000/svg">
<path d="M17.6027 9.71215L6.19178 2.65768C4.44521 1.42594 2 2.88163 2 5.12114V19.3421C2 21.5816 4.44521 22.9253 6.19178 21.8055L17.6027 14.6391C19.4658 13.5193 19.4658 10.8319 17.6027 9.71215Z" fill="black"/>
<path fill-rule="evenodd" clip-rule="evenodd" d="M21 1.20801C21.5523 1.20801 22 1.65572 22 2.20801V22.208C22 22.7603 21.5523 23.208 21 23.208C20.4477 23.208 20 22.7603 20 22.208V2.20801C20 1.65572 20.4477 1.20801 21 1.20801Z" fill="black"/>
</svg>

<svg xmlns="http://www.w3.org/2000/svg" fill="none" viewBox="0 0 24 25"><path fill="#000" d="M17.603 9.712 6.192 2.658C4.445 1.426 2 2.882 2 5.12v14.221c0 2.24 2.445 3.583 4.192 2.464l11.41-7.167c1.864-1.12 1.864-3.807 0-4.927"/><path fill="#000" fill-rule="evenodd" d="M21 1.208a1 1 0 0 1 1 1v20a1 1 0 1 1-2 0v-20a1 1 0 0 1 1-1" clip-rule="evenodd"/></svg>
